X: 1
T:Meglomania  "(c) Mark Saul Book 2"
M:C
L:1/8
Q:80
C:Mark Saul
S:Reel
K:HP
[| {g}fe|
{Gdc}d2{g}Bd{e}G{d}B{g}Bd|
{g}B{d}G{e}G{d}B{g}G{d}B{g}B{d}G|  !
{dc}d2{g}Bd{e}G{d}B{g}Bd|
{g}fG{g}B{d}G{g}B2{d}c2|
{Gdc}d2{g}Bd{e}G{d}B{g}Bd|  !
{g}B{d}G{e}G{d}B{g}G{d}B{g}B{d}G|
{g}B{d}G{g}Bd{g}G{d}B{g}Bd|
{g}cage{Gdc}d2|] [|  !
{g}fg|
{ag}a3A{g}Aage|
{gf}g2{a}gd{g}G{d}B{g}Bd|  !
{ag}a3A{g}Aage|
{g}dG{g}Bd{g}f2g2|
aA{g}AaAage|  !
{gf}g2{a}gd{g}G{d}B{g}Bd|
{g}B{d}G{g}Bd{g}G{d}B{g}Bd|
{g}cage{Gdc}d2|] [|  !
{g}fe|
{g}dG{g}B{d}G{g}Bd{g}G{d}B|
{g}B{d}G{g}Bd{gBG}B2{g}G{d}B|  !
{g}dG{g}B{d}G{g}Bd{g}G{d}B|
{g}f2e2{g}B2{d}c2|
{g}dG{g}G{d}B{g}G{d}G{g}B{d}G|  !
{g}B2{g}G{d}B{g}dG{g}B{d}G|
{g}B{d}G{g}Bd{g}G{d}B{g}Bd|
{g}cage{Gdc}d2|] [|  !
{g}fg|
aA{g}AaAa{g}aA|
{a}gA{g}Ag{a}Ag{e}gA|  !
aA{g}AaAa{g}aA|
{g}d2e2{g}f2g2|
aA{g}Aa{g}aA{g}Aa|  !
gA{g}Ag{e}gA{g}Ag|
{a}B{d}G{g}Bd{g}G{d}B{g}Bd|
{g}cage{Gdc}d2|] [|  !
{g}fg|
aA{g}AaA{d}AaA|
{a}gA{g}AgA{d}AgA|  !
aA{g}AaA{d}AaA|
{g}dA{g}eA{g}fA{g}Ag|
aA{g}AagA{g}Ag|  !
{a}fG{g}G{d}B{g}G{d}B{g}B{d}G|
{g}B{d}G{g}Bd{g}G{d}B{g}Bd|
{g}cage{Gdc}d2|]  !
